!!!COM: Music21
!!!OTL: barndance_Les-Agents-Dassurance
!!!OMV: barndance_Les-Agents-Dassurance
**kern
*clefG2
*k[f#]
*M4/4
=1
8ddL
8ddJ
=||
8.aL
16ddJk
8ddL
8ddJ
4ff#
8eeL
8ff#J
=
8ggL
8aaJ
8ggL
8ff#J
4ee
16ddLL
16ddJ
8ddJ
=
8aL
8ddJ
8ddL
8ddJ
8ff#L
8ddJ
8eeL
8ff#J
=
8ggL
8aaJ
8ggL
8eeJ
4dd
8ddL
8ddJ
=||
8.aL
16ddJk
8ddL
8ddJ
4ff#
8eeL
8ff#J
!!linebreak:original
=
8ggL
8aaJ
8ggL
8ff#J
4ee
16ddLL
16ddJ
8ddJ
=
8aL
8ddJ
8ddL
8ddJ
8ff#L
8ddJ
8eeL
8ff#J
=
8ggL
8eeJ
8cc#XL
8eeJ
4dd
8.ff#L
16ggJk
=||
8.aaL
16aaJk
8ff#L
8ddJ
8aaL
8ddJ
8ff#L
8aaJ
=
16ggLL
16ggJ
8ggJ
8eeL
8ccJ
8ggL
8ccJ
8eeL
8ggJ
!!linebreak:original
=
16aaLL
16aaJ
8aaJ
8ff#L
8ddJ
8aaL
8ddJ
8eeL
8ff#J
=
8ggL
8eeJ
8cc#XL
8eeJ
4dd
8ff#L
8ggJ
=||
8.aaL
16aaJk
8ff#L
8ddJ
8aaL
8ddJ
8ff#L
8aaJ
=
16ggLL
16ggJ
8ggJ
8eeL
8ccJ
8ggL
8ccJ
8eeL
8ggJ
!!linebreak:original
=
16aaLL
16aaJ
8aaJ
8ff#L
8ddJ
8aaL
8ddJ
8eeL
8ff#J
=
8ggL
8eeJ
8ccL
8eeJ
4dd
4ryy
=||
*-
